Numix/16/status/indicator-keyboard-Ur-2.svg

<?xml version="1.0" encoding="UTF-8" standalone="no"?>
<svg
   xmlns:dc="http://purl.org/dc/elements/1.1/"
   xmlns:cc="http://creativecommons.org/ns#"
   xmlns:rdf="http://www.w3.org/1999/02/22-rdf-syntax-ns#"
   xmlns:svg="http://www.w3.org/2000/svg"
   xmlns="http://www.w3.org/2000/svg"
   xmlns:sodipodi="http://sodipodi.sourceforge.net/DTD/sodipodi-0.dtd"
   xmlns:inkscape="http://www.inkscape.org/namespaces/inkscape"
   viewBox="0 0 16 16"
   id="svg2"
   version="1.1"
   inkscape:version="0.91 r13725"
   sodipodi:docname="indicator-keyboard-Ur-2.svg">
  <metadata
     id="metadata14">
    <rdf:RDF>
      <cc:Work
         rdf:about="">
        <dc:format>image/svg+xml</dc:format>
        <dc:type
           rdf:resource="http://purl.org/dc/dcmitype/StillImage" />
      </cc:Work>
    </rdf:RDF>
  </metadata>
  <defs
     id="defs12" />
  <sodipodi:namedview
     pagecolor="#ffffff"
     bordercolor="#666666"
     borderopacity="1"
     objecttolerance="10"
     gridtolerance="10"
     guidetolerance="10"
     inkscape:pageopacity="0"
     inkscape:pageshadow="2"
     inkscape:window-width="640"
     inkscape:window-height="480"
     id="namedview10"
     showgrid="false"
     inkscape:zoom="14.75"
     inkscape:cx="8"
     inkscape:cy="8"
     inkscape:window-x="65"
     inkscape:window-y="24"
     inkscape:window-maximized="0"
     inkscape:current-layer="svg2" />
  <path
     style="fill:#ececec;fill-opacity:1"
     d="M 1.5996094 0 C 0.71320937 2.9605947e-16 0 0.71320937 0 1.5996094 L 0 14.400391 C 2.9605947e-16 15.286791 0.71320937 16 1.5996094 16 L 14.400391 16 C 15.286791 16 16 15.286791 16 14.400391 L 16 1.5996094 C 16 0.71320937 15.286791 0 14.400391 0 L 1.5996094 0 z M 2.25 4.859375 L 2.8613281 4.859375 L 2.8613281 8.7011719 C 2.8613281 9.0431719 2.9005156 9.34175 2.9785156 9.59375 C 3.0625156 9.83975 3.1763125 10.043078 3.3203125 10.205078 C 3.4643125 10.367078 3.63975 10.486453 3.84375 10.564453 C 4.04775 10.642453 4.2753437 10.681641 4.5273438 10.681641 C 4.7793438 10.681641 5.0069375 10.642453 5.2109375 10.564453 C 5.4149375 10.486453 5.5884219 10.367078 5.7324219 10.205078 C 5.8764219 10.043078 5.9884063 9.83975 6.0664062 9.59375 C 6.1504062 9.34175 6.1914063 9.0431719 6.1914062 8.7011719 L 6.1914062 4.859375 L 6.8046875 4.859375 L 6.8046875 8.7832031 C 6.8046875 9.1252031 6.7617344 9.4460937 6.6777344 9.7460938 C 6.5997344 10.040094 6.4710156 10.297531 6.2910156 10.519531 C 6.1110156 10.741531 5.8740781 10.916969 5.5800781 11.042969 C 5.2920781 11.168969 4.9413437 11.230469 4.5273438 11.230469 C 4.1133438 11.230469 3.7588438 11.168969 3.4648438 11.042969 C 3.1768437 10.916969 2.9436719 10.741531 2.7636719 10.519531 C 2.5836719 10.297531 2.4511875 10.040094 2.3671875 9.7460938 C 2.2891875 9.4460938 2.25 9.1252031 2.25 8.7832031 L 2.25 4.859375 z M 9.9433594 6.3535156 C 10.135359 6.3535156 10.314422 6.3684375 10.482422 6.3984375 C 10.656422 6.4284375 10.775797 6.4582812 10.841797 6.4882812 L 10.724609 6.9921875 C 10.676609 6.9681875 10.577734 6.9439219 10.427734 6.9199219 C 10.283734 6.8899219 10.091562 6.875 9.8515625 6.875 C 9.5995625 6.875 9.3962344 6.8936875 9.2402344 6.9296875 C 9.0902344 6.9656875 8.9913594 6.9955312 8.9433594 7.0195312 L 8.9433594 11.095703 L 8.3574219 11.095703 L 8.3574219 6.6582031 C 8.5074219 6.5922031 8.7145156 6.5269375 8.9785156 6.4609375 C 9.2425156 6.3889375 9.5653594 6.3535156 9.9433594 6.3535156 z M 12.421875 8.7539062 C 12.815775 8.7539062 13.111647 8.851875 13.310547 9.046875 C 13.509447 9.237975 13.609375 9.5044563 13.609375 9.8476562 C 13.609375 9.9997563 13.581944 10.14475 13.527344 10.28125 C 13.472744 10.41385 13.398288 10.543169 13.304688 10.667969 C 13.214987 10.792769 13.113094 10.912297 12.996094 11.029297 C 12.879094 11.146297 12.759572 11.263859 12.638672 11.380859 C 12.537272 11.478359 12.437344 11.578288 12.339844 11.679688 C 12.246244 11.777187 12.160031 11.877116 12.082031 11.978516 C 12.007931 12.076016 11.947191 12.172031 11.900391 12.269531 C 11.857491 12.363131 11.835937 12.457181 11.835938 12.550781 L 11.835938 12.5625 L 13.75 12.5625 L 13.75 12.896484 L 11.416016 12.896484 C 11.416016 12.888684 11.414023 12.874969 11.410156 12.855469 L 11.410156 12.755859 C 11.410156 12.572559 11.443466 12.402094 11.509766 12.246094 C 11.576066 12.086194 11.660319 11.937275 11.761719 11.796875 C 11.867019 11.656475 11.980669 11.525197 12.105469 11.404297 C 12.234169 11.283397 12.357609 11.165834 12.474609 11.052734 C 12.572109 10.959134 12.6642 10.869003 12.75 10.783203 C 12.8397 10.693503 12.918075 10.603366 12.984375 10.509766 C 13.050675 10.416166 13.101625 10.316237 13.140625 10.210938 C 13.179625 10.105638 13.199219 9.9900344 13.199219 9.8652344 C 13.199219 9.5922344 13.126716 9.39825 12.978516 9.28125 C 12.834216 9.16035 12.650034 9.0996094 12.427734 9.0996094 C 12.302934 9.0996094 12.19125 9.1152844 12.09375 9.1464844 C 11.99625 9.1776844 11.910037 9.2149125 11.835938 9.2578125 C 11.765737 9.2968125 11.70695 9.3379594 11.65625 9.3808594 C 11.60555 9.4237594 11.568322 9.4570688 11.544922 9.4804688 L 11.345703 9.2167969 C 11.369103 9.1894969 11.41025 9.1503094 11.46875 9.0996094 C 11.53115 9.0450094 11.607566 8.9921062 11.697266 8.9414062 C 11.790866 8.8907063 11.896678 8.8476 12.017578 8.8125 C 12.138478 8.7735 12.273675 8.7539063 12.421875 8.7539062 z "
     id="path4" />
</svg>

<svg xmlns="http://www.w3.org/2000/svg" viewBox="0 0 16 16">
 <path d="m 1.6 0 c -0.886 0 -1.6 0.713 -1.6 1.6 l 0 12.801 c 0 0.886 0.713 1.6 1.6 1.6 l 12.801 0 c 0.886 0 1.6 -0.713 1.6 -1.6 l 0 -12.801 c 0 -0.886 -0.713 -1.6 -1.6 -1.6 l -12.801 0 z m 0.65 4.859 l 0.611 0 l 0 3.842 c 0 0.342 0.039 0.641 0.117 0.893 c 0.084 0.246 0.198 0.449 0.342 0.611 c 0.144 0.162 0.319 0.281 0.523 0.359 c 0.204 0.078 0.432 0.117 0.684 0.117 c 0.252 0 0.48 -0.039 0.684 -0.117 c 0.204 -0.078 0.377 -0.197 0.521 -0.359 c 0.144 -0.162 0.256 -0.365 0.334 -0.611 c 0.084 -0.252 0.125 -0.551 0.125 -0.893 l 0 -3.842 l 0.613 0 l 0 3.924 c 0 0.342 -0.043 0.663 -0.127 0.963 c -0.078 0.294 -0.207 0.551 -0.387 0.773 c -0.18 0.222 -0.417 0.397 -0.711 0.523 c -0.288 0.126 -0.639 0.188 -1.053 0.188 c -0.414 0 -0.768 -0.061 -1.062 -0.188 c -0.288 -0.126 -0.521 -0.301 -0.701 -0.523 c -0.18 -0.222 -0.312 -0.479 -0.396 -0.773 c -0.078 -0.3 -0.117 -0.621 -0.117 -0.963 l 0 -3.924 z m 7.693 1.494 c 0.192 0 0.371 0.015 0.539 0.045 c 0.174 0.03 0.293 0.06 0.359 0.09 l -0.117 0.504 c -0.048 -0.024 -0.147 -0.048 -0.297 -0.072 c -0.144 -0.03 -0.336 -0.045 -0.576 -0.045 c -0.252 0 -0.455 0.019 -0.611 0.055 c -0.15 0.036 -0.249 0.066 -0.297 0.09 l 0 4.076 l -0.586 0 l 0 -4.437 c 0.15 -0.066 0.357 -0.131 0.621 -0.197 c 0.264 -0.072 0.587 -0.107 0.965 -0.107 z m 2.479 2.4 c 0.394 0 0.69 0.098 0.889 0.293 c 0.199 0.191 0.299 0.458 0.299 0.801 c 0 0.152 -0.027 0.297 -0.082 0.434 c -0.055 0.133 -0.129 0.262 -0.223 0.387 c -0.09 0.125 -0.192 0.244 -0.309 0.361 c -0.117 0.117 -0.237 0.235 -0.357 0.352 c -0.101 0.098 -0.201 0.197 -0.299 0.299 c -0.094 0.097 -0.18 0.197 -0.258 0.299 c -0.074 0.097 -0.135 0.194 -0.182 0.291 c -0.043 0.094 -0.064 0.188 -0.064 0.281 l 0 0.012 l 1.914 0 l 0 0.334 l -2.334 0 c 0 -0.008 -0.002 -0.022 -0.006 -0.041 l 0 -0.1 c 0 -0.183 0.033 -0.354 0.1 -0.51 c 0.066 -0.16 0.151 -0.309 0.252 -0.449 c 0.105 -0.14 0.219 -0.272 0.344 -0.393 c 0.129 -0.121 0.252 -0.238 0.369 -0.352 c 0.098 -0.094 0.19 -0.184 0.275 -0.27 c 0.09 -0.09 0.168 -0.18 0.234 -0.273 c 0.066 -0.094 0.117 -0.194 0.156 -0.299 c 0.039 -0.105 0.059 -0.221 0.059 -0.346 c 0 -0.273 -0.073 -0.467 -0.221 -0.584 c -0.144 -0.121 -0.328 -0.182 -0.551 -0.182 c -0.125 0 -0.236 0.016 -0.334 0.047 c -0.098 0.031 -0.184 0.068 -0.258 0.111 c -0.07 0.039 -0.129 0.08 -0.18 0.123 c -0.051 0.043 -0.088 0.076 -0.111 0.1 l -0.199 -0.264 c 0.023 -0.027 0.065 -0.066 0.123 -0.117 c 0.062 -0.055 0.139 -0.108 0.229 -0.158 c 0.094 -0.051 0.199 -0.094 0.32 -0.129 c 0.121 -0.039 0.256 -0.059 0.404 -0.059 z" style="fill:#ececec;fill-opacity:1"/>
</svg>
